X: 3
T: Whiskey Before Breakfast
R: reel
M: 4/4
L: 1/8
K: Dmaj
A,B,DE D2FG|AFBF A2EF|G2BG F2AF|1 EDEF EDB,A,:|2 EDEF D4||:F2d2 d2Bc|dcdA BAFA|e4 e2ef|gfed cABc|d2fd c2ec|BABd BAFD|G2BG F2AF|EDEF D2z2:||


Tune 602	Setting 602

